svgs/light/sun-cloud.svg

<svg xmlns="http://www.w3.org/2000/svg" viewBox="0 0 640 512"><!--! Font Awesome Pro 6.0.0-alpha3 by @fontawesome - https://fontawesome.com License - https://fontawesome.com/license (Commercial License) --><path d="M558.3 185.6C542.1 151.5 507.4 128 468 128c-41.75 0-77.63 25.25-92.5 62.5C343 201.9 320 232.6 320 268.8C320 314.8 357.2 352 403.2 352h153.5C602.8 352 640 314.8 640 268.8C640 223.4 603.4 186.4 558.3 185.6zM556.8 320h-153.5C374.9 320 352 297.1 352 268.8C352 241.2 373.8 219 401 217.8C405.9 185.1 433.9 160 468 160c35.75 0 64.75 27.75 67.5 62.88c6.5-3.125 13.62-5.25 21.25-5.25C585.1 217.6 608 240.5 608 268.8C608 297.1 585.1 320 556.8 320zM404.9 402.7l.5232 2.662l-84.75-16.75C313.1 387.2 307.8 390 304.2 395.4L256 467.2l-48.12-72c-3.625-5.25-9.875-8-16.38-6.75l-84.75 16.75l16.75-84.75c1.25-6.25-1.375-12.75-6.75-16.38L44.75 256l72-48.12c5.375-3.625 8-10.12 6.75-16.38L106.8 106.8l84.75 16.75C197.1 124.8 204.2 122 207.9 116.8L256 44.75l48.13 72c3.625 5.25 9.875 8 16.38 6.75L428.8 102c8.75-1.75 14.37-10.12 12.62-18.75c-1.625-8.75-10.13-14.5-18.75-12.62L324.8 90L269.2 7.125C266.2 2.75 261.2 0 256 0C250.8 0 245.8 2.75 242.8 7.125L187.2 90L89.38 70.62C84.12 69.5 78.75 71.25 75 75S69.62 84.25 70.62 89.38l19.37 97.87L7.125 242.8C2.75 245.8 0 250.6 0 256c0 5.375 2.75 10.25 7.125 13.25l82.87 55.5L70.62 422.6c-1 5.125 .625 10.62 4.375 14.38s9.125 5.375 14.38 4.375L187.2 422l55.5 82.88C245.8 509.2 250.8 512 256 512c5.25 0 10.25-2.75 13.25-7.125L324.8 422l97.75 19.38c5.375 1.125 10.75-.625 14.38-4.375c3.875-3.75 5.375-9.25 4.375-14.38l-5.039-25.95c-.1012-.5211-2.5-12.65-15.77-12.75C410.5 383.8 402.9 392.9 404.9 402.7zM247.3 180.2c19.2-2.13 37.15 2.881 51.55 12.71c6.037 4.124 14.58 3.643 20.71-2.83c6.537-6.907 4.779-18.43-3.093-23.76C293 150.5 263.1 143.4 231.5 150.5C188.7 160.1 156.8 193.8 149.4 237.1C137.7 305.1 189.1 364.2 256 364.2c15.89 0 31.04-3.475 44.7-9.702c6.094-2.778 13.29-12.61 6.488-22.95c-4.382-6.665-12.72-9.351-19.99-6.064C277.7 329.9 267.1 332.2 256 332.2c-44.96 0-80.81-38.88-75.78-84.86C184 212.5 212.4 184.1 247.3 180.2z"/></svg>

<svg xmlns="http://www.w3.org/2000/svg" viewBox="0 0 640 512"><!-- Font Awesome Pro 6.0.0-alpha2 by @fontawesome - https://fontawesome.com License - https://fontawesome.com/license (Commercial License) --><path d="M558.25 185.625C542.125 151.5 507.375 128 468 128C426.25 128 390.375 153.25 375.5 190.5C343 201.875 320 232.625 320 268.75C320 314.75 357.25 352 403.25 352H556.75C602.75 352 640 314.75 640 268.75C640 223.375 603.375 186.375 558.25 185.625ZM556.75 320H403.25C374.875 320 352 297.125 352 268.75C352 241.25 373.75 219 401 217.75C405.875 185.125 433.875 160 468 160C503.75 160 532.75 187.75 535.5 222.875C542 219.75 549.125 217.625 556.75 217.625C585.125 217.625 608 240.5 608 268.75C608 297.125 585.125 320 556.75 320ZM404.852 402.713L405.375 405.375L320.625 388.625C314 387.25 307.75 390 304.25 395.375L256 467.25L207.875 395.25C204.25 390 198 387.25 191.5 388.5L106.75 405.25L123.5 320.5C124.75 314.25 122.125 307.75 116.75 304.125L44.75 256L116.75 207.875C122.125 204.25 124.75 197.75 123.5 191.5L106.75 106.75L191.5 123.5C198 124.75 204.25 122 207.875 116.75L256 44.75L304.125 116.75C307.75 122 314 124.75 320.5 123.5L428.75 102C437.5 100.25 443.125 91.875 441.375 83.25C439.75 74.5 431.25 68.75 422.625 70.625L324.75 90L269.25 7.125C266.25 2.75 261.25 0 256 0C250.75 0 245.75 2.75 242.75 7.125L187.25 90L89.375 70.625C84.125 69.5 78.75 71.25 75 75S69.625 84.25 70.625 89.375L90 187.25L7.125 242.75C2.75 245.75 0 250.625 0 256C0 261.375 2.75 266.25 7.125 269.25L90 324.75L70.625 422.625C69.625 427.75 71.25 433.25 75 437S84.125 442.375 89.375 441.375L187.25 422L242.75 504.875C245.75 509.25 250.75 512 256 512C261.25 512 266.25 509.25 269.25 504.875L324.75 422L422.5 441.375C427.875 442.5 433.25 440.75 436.875 437C440.75 433.25 442.25 427.75 441.25 422.625L436.211 396.676C436.11 396.155 433.711 384.031 420.438 383.924C410.467 383.844 402.929 392.929 404.852 402.713ZM247.288 180.235C266.486 178.105 284.441 183.115 298.836 192.948C304.873 197.072 313.418 196.591 319.544 190.118C326.08 183.212 324.323 171.693 316.451 166.357C293.045 150.494 263.103 143.428 231.536 150.483C188.715 160.052 156.816 193.821 149.389 237.065C137.713 305.058 189.992 364.25 256 364.25C271.888 364.25 287.045 360.775 300.703 354.548C306.797 351.77 313.989 341.936 307.191 331.595C302.809 324.93 294.47 322.244 287.202 325.531C277.654 329.85 267.12 332.25 256 332.25C211.038 332.25 175.19 293.374 180.222 247.389C184.041 212.49 212.394 184.106 247.288 180.235Z"/></svg>
